modules/contact_form/images/submissions.svg

<svg id="Layer_1" enable-background="new 0 0 48 24" viewBox="0 0 48 24" xmlns="http://www.w3.org/2000/svg"><path d="m23.8 15.8c-.2-.3-.5-.4-.8-.4-.1 0-.1 0-.2.1l-1.8.7v-6.1-9.1h-15v1 2h-3v1 2h-2v1 16h12.8 1.2v-3h .5l1.7 2.3c.2.3.5.4.8.4s.7-.2.8-.4l4.8-6.2c.5-.4.5-.9.2-1.3z" fill="#939393"/><path d="m5 1h14v17h-14z" fill="#d6d6d6"/><path d="m20 18h-15v-18h15zm-14-1h13v-16h-13z" fill="#5a5a5a"/><path d="m2 4h14v16h-14z" fill="#d6d6d6"/><path d="m17 20h-15v-17h15zm-14-1h13v-15h-13z" fill="#5a5a5a"/><path d="m0 7h13v16h-13z" fill="#d6d6d6"/><path d="m14 23h-14v-17h14zm-13-1h12v-15h-12z" fill="#5a5a5a"/><path d="m2 20h9v1h-9z" fill="#5a5a5a"/><path d="m2 18h9v1h-9z" fill="#5a5a5a"/><path d="m2 16h9v1h-9z" fill="#5a5a5a"/><path d="m8 8h4v1h-4z" fill="#5a5a5a"/><path d="m8 10h4v1h-4z" fill="#5a5a5a"/><circle cx="5.5" cy="9.3" fill="#5a5a5a" r="1.9"/><path d="m9.1 15c0-1 0-.4 0-.5 0-1.2-.6-2.4-1.5-3-.5.5-1.3.8-2.1.8s-1.6-.3-2.1-.9c-.9.6-1.5 1.9-1.5 3.1 0 .1 0-.6 0 .4h7.2z" fill="#5a5a5a"/><path d="m17.4 22.7c-.3 0-.6-.2-.8-.4l-4.8-6.2c-.1-.2-.2-.4-.2-.6 0-.2.1-.5.2-.6.2-.3.5-.4.8-.4.1 0 .2 0 .4.1l2.1.8v-6.3c-.1-.6.4-1.1 1-1.1h2.5c.6 0 1.4.5 1.4 1.1v6.1l1.9-.8c.1 0 .2-.1.3-.1.3 0 .6.2.8.4.3.4.3.9 0 1.3l-4.8 6.2c-.2.3-.5.5-.8.5z" fill="#5a5a5a"/><path d="m17.4 21.9c-.1 0-.2 0-.2-.1l-4.8-6.2c0 0-.1-.1-.1-.2 0-.1 0-.1.1-.2.1-.1.2-.1.3-.1l3.2 1.2v-7.2c0-.1.1-.3.3-.3h2.5c.1 0 .3.1.3.3v7.3l3.2-1.2c.1 0 .2 0 .3.1.1.1.1.2 0 .3l-4.8 6.2c-.2 0-.3.1-.3.1z" fill="#fff"/><path d="m47.8 15.8c-.2-.3-.5-.4-.8-.4-.1 0-.1 0-.2.1l-1.8.7v-6.1-9.1h-15v1 2h-3v1 2h-2v1 16h12.8 1.2v-3h .5l1.7 2.3c.2.3.5.4.8.4s.7-.2.8-.4l4.8-6.2c.5-.4.5-.9.2-1.3z" fill="#939393"/><path d="m29 1h14v17h-14z" fill="#fff"/><path d="m44 18h-15v-18h15zm-14-1h13v-16h-13z" fill="#ac382e"/><path d="m26 4h14v16h-14z" fill="#fff"/><path d="m41 20h-15v-17h15zm-14-1h13v-15h-13z" fill="#ac382e"/><path d="m24 7h13v16h-13z" fill="#fff"/><path d="m38 23h-14v-17h14zm-13-1h12v-15h-12z" fill="#ac382e"/><path d="m26 20h9v1h-9z" fill="#e74c3c"/><path d="m26 18h9v1h-9z" fill="#e74c3c"/><path d="m26 16h9v1h-9z" fill="#e74c3c"/><path d="m32 8h4v1h-4z" fill="#e74c3c"/><path d="m32 10h4v1h-4z" fill="#e74c3c"/><circle cx="29.5" cy="9.3" fill="#ac382e" r="1.9"/><path d="m33.1 15c0-1 0-.4 0-.5 0-1.2-.6-2.4-1.5-3-.5.5-1.3.8-2.1.8s-1.6-.4-2.1-.9c-.9.6-1.5 1.9-1.5 3.1 0 .1 0-.6 0 .4h7.2z" fill="#ac382e"/><path d="m41.4 22.7c-.3 0-.6-.2-.8-.4l-4.8-6.2c-.1-.2-.2-.4-.2-.6 0-.2.1-.5.2-.6.2-.3.5-.4.8-.4.1 0 .2 0 .4.1l2.1.8v-6.3c-.1-.6.4-1.1 1-1.1h2.5c.6 0 1.4.5 1.4 1.1v6.1l1.9-.8c.1 0 .2-.1.3-.1.3 0 .6.2.8.4.3.4.3.9 0 1.3l-4.8 6.2c-.2.3-.5.5-.8.5z" fill="#fff"/><path d="m41.4 21.9c-.1 0-.2 0-.2-.1l-4.8-6.2c0 0-.1-.1-.1-.2 0-.1 0-.1.1-.2.1-.1.2-.1.3-.1l3.2 1.2v-7.2c0-.1.1-.3.3-.3h2.5c.1 0 .3.1.3.3v7.3l3.2-1.2c.1 0 .2 0 .3.1.1.1.1.2 0 .3l-4.8 6.2c-.2 0-.3.1-.3.1z" fill="#e74c3c"/></svg>

<?xml version="1.0" encoding="utf-8"?>
<!-- Generator: Adobe Illustrator 17.1.0, SVG Export Plug-In . SVG Version: 6.00 Build 0)  -->
<!DOCTYPE svg PUBLIC "-//W3C//DTD SVG 1.1//EN" "http://www.w3.org/Graphics/SVG/1.1/DTD/svg11.dtd">
<svg version="1.1" id="Layer_1" xmlns="http://www.w3.org/2000/svg" xmlns:xlink="http://www.w3.org/1999/xlink" x="0px" y="0px"
	 viewBox="0 0 48 24" enable-background="new 0 0 48 24" xml:space="preserve">
<g>
	<path fill="#939393" d="M23.8,15.8c-0.2-0.3-0.5-0.4-0.8-0.4c-0.1,0-0.1,0-0.2,0.1L21,16.2v-6.1V1H6v1v2H3v1v2H1v1v16h12.8H15v-3
		h0.5l1.7,2.3c0.2,0.3,0.5,0.4,0.8,0.4s0.7-0.2,0.8-0.4l4.8-6.2C24.1,16.7,24.1,16.2,23.8,15.8z"/>
</g>
<g>
	<g>
		<rect x="5" y="1" fill="#D6D6D6" width="14" height="17"/>
		<path fill="#5A5A5A" d="M20,18H5V0h15V18z M6,17h13V1H6V17z"/>
	</g>
	<g>
		<rect x="2" y="4" fill="#D6D6D6" width="14" height="16"/>
		<path fill="#5A5A5A" d="M17,20H2V3h15V20z M3,19h13V4H3V19z"/>
	</g>
	<g>
		<rect y="7" fill="#D6D6D6" width="13" height="16"/>
		<path fill="#5A5A5A" d="M14,23H0V6h14V23z M1,22h12V7H1V22z"/>
	</g>
	<g>
		<rect x="2" y="20" fill="#5A5A5A" width="9" height="1"/>
	</g>
	<g>
		<rect x="2" y="18" fill="#5A5A5A" width="9" height="1"/>
	</g>
	<g>
		<rect x="2" y="16" fill="#5A5A5A" width="9" height="1"/>
	</g>
	<g>
		<rect x="8" y="8" fill="#5A5A5A" width="4" height="1"/>
	</g>
	<g>
		<rect x="8" y="10" fill="#5A5A5A" width="4" height="1"/>
	</g>
	<g>
		<g>
			<circle fill="#5A5A5A" cx="5.5" cy="9.3" r="1.9"/>
		</g>
		<g>
			<path fill="#5A5A5A" d="M9.1,15c0-1,0-0.4,0-0.5c0-1.2-0.6-2.4-1.5-3c-0.5,0.5-1.3,0.8-2.1,0.8S3.9,12,3.4,11.4
				c-0.9,0.6-1.5,1.9-1.5,3.1c0,0.1,0-0.6,0,0.4H9.1z"/>
		</g>
	</g>
</g>
<g>
	<g>
		<path fill="#5A5A5A" d="M17.4,22.7c-0.3,0-0.6-0.2-0.8-0.4l-4.8-6.2c-0.1-0.2-0.2-0.4-0.2-0.6c0-0.2,0.1-0.5,0.2-0.6
			c0.2-0.3,0.5-0.4,0.8-0.4c0.1,0,0.2,0,0.4,0.1l2.1,0.8V9.1C15,8.5,15.5,8,16.1,8h2.5C19.2,8,20,8.5,20,9.1v6.1l1.9-0.8
			c0.1,0,0.2-0.1,0.3-0.1c0.3,0,0.6,0.2,0.8,0.4c0.3,0.4,0.3,0.9,0,1.3l-4.8,6.2C18,22.5,17.7,22.7,17.4,22.7z"/>
	</g>
	<g>
		<path fill="#FFFFFF" d="M17.4,21.9c-0.1,0-0.2,0-0.2-0.1l-4.8-6.2c0,0-0.1-0.1-0.1-0.2c0-0.1,0-0.1,0.1-0.2
			c0.1-0.1,0.2-0.1,0.3-0.1l3.2,1.2V9.1c0-0.1,0.1-0.3,0.3-0.3h2.5c0.1,0,0.3,0.1,0.3,0.3v7.3l3.2-1.2c0.1,0,0.2,0,0.3,0.1
			c0.1,0.1,0.1,0.2,0,0.3l-4.8,6.2C17.5,21.8,17.4,21.9,17.4,21.9z"/>
	</g>
</g>
<g>
	<path fill="#939393" d="M47.8,15.8c-0.2-0.3-0.5-0.4-0.8-0.4c-0.1,0-0.1,0-0.2,0.1L45,16.2v-6.1V1H30v1v2h-3v1v2h-2v1v16h12.8H39
		v-3h0.5l1.7,2.3c0.2,0.3,0.5,0.4,0.8,0.4s0.7-0.2,0.8-0.4l4.8-6.2C48.1,16.7,48.1,16.2,47.8,15.8z"/>
</g>
<rect x="29" y="1" fill="#FFFFFF" width="14" height="17"/>
<path fill="#AC382E" d="M44,18H29V0h15V18z M30,17h13V1H30V17z"/>
<rect x="26" y="4" fill="#FFFFFF" width="14" height="16"/>
<path fill="#AC382E" d="M41,20H26V3h15V20z M27,19h13V4H27V19z"/>
<rect x="24" y="7" fill="#FFFFFF" width="13" height="16"/>
<path fill="#AC382E" d="M38,23H24V6h14V23z M25,22h12V7H25V22z"/>
<rect x="26" y="20" fill="#E74C3C" width="9" height="1"/>
<rect x="26" y="18" fill="#E74C3C" width="9" height="1"/>
<rect x="26" y="16" fill="#E74C3C" width="9" height="1"/>
<rect x="32" y="8" fill="#E74C3C" width="4" height="1"/>
<rect x="32" y="10" fill="#E74C3C" width="4" height="1"/>
<g>
	<circle fill="#AC382E" cx="29.5" cy="9.3" r="1.9"/>
	<path fill="#AC382E" d="M33.1,15c0-1,0-0.4,0-0.5c0-1.2-0.6-2.4-1.5-3c-0.5,0.5-1.3,0.8-2.1,0.8s-1.6-0.4-2.1-0.9
		c-0.9,0.6-1.5,1.9-1.5,3.1c0,0.1,0-0.6,0,0.4H33.1z"/>
</g>
<g>
	<g>
		<path fill="#FFFFFF" d="M41.4,22.7c-0.3,0-0.6-0.2-0.8-0.4l-4.8-6.2c-0.1-0.2-0.2-0.4-0.2-0.6c0-0.2,0.1-0.5,0.2-0.6
			c0.2-0.3,0.5-0.4,0.8-0.4c0.1,0,0.2,0,0.4,0.1l2.1,0.8V9.1C39,8.5,39.5,8,40.1,8h2.5C43.2,8,44,8.5,44,9.1v6.1l1.9-0.8
			c0.1,0,0.2-0.1,0.3-0.1c0.3,0,0.6,0.2,0.8,0.4c0.3,0.4,0.3,0.9,0,1.3l-4.8,6.2C42,22.5,41.7,22.7,41.4,22.7z"/>
	</g>
	<g>
		<path fill="#E74C3C" d="M41.4,21.9c-0.1,0-0.2,0-0.2-0.1l-4.8-6.2c0,0-0.1-0.1-0.1-0.2c0-0.1,0-0.1,0.1-0.2
			c0.1-0.1,0.2-0.1,0.3-0.1l3.2,1.2V9.1c0-0.1,0.1-0.3,0.3-0.3h2.5c0.1,0,0.3,0.1,0.3,0.3v7.3l3.2-1.2c0.1,0,0.2,0,0.3,0.1
			c0.1,0.1,0.1,0.2,0,0.3l-4.8,6.2C41.5,21.8,41.4,21.9,41.4,21.9z"/>
	</g>
</g>
</svg>
